assets/icons/folder_icons/folder-dict.svg

<?xml version="1.0" encoding="UTF-8"?><svg id="Done" xmlns="http://www.w3.org/2000/svg" xmlns:xlink="http://www.w3.org/1999/xlink" viewBox="0 0 14 14"><defs><style>.cls-1{fill:#40a0ff;}.cls-2{fill:url(#linear-gradient);isolation:isolate;opacity:.723;}.cls-3{fill:#f29b00;}.cls-4{fill:#efe39a;}.cls-5{fill:red;}</style><linearGradient id="linear-gradient" x1="1022.8608" y1="-893.0094" x2="1022.8608" y2="-889.0094" gradientTransform="translate(-508.4304 -444.5047) scale(.5 -.5)" gradientUnits="userSpaceOnUse"><stop offset="0" stop-color="#000"/><stop offset="1" stop-color="#000" stop-opacity=".151"/></linearGradient></defs><g id="Layer_24_copy"><path id="folder" class="cls-1" d="m1,0C.5286,0,0,.5286,0,1v7c0,.4714.5286,1,1,1h10c.4714,0,1-.5286,1-1V2c0-.4714-.5286-1-1-1h-5C6,.5286,5.4714,0,5,0H1Z"/><path id="tab" class="cls-2" d="m1,0C.5286,0,0,.5286,0,1s.5286,1,1,1h4c.4714,0,1-.5286,1-1S5.4714,0,5,0H1Z"/><rect x="3" y="3" width="11" height="11" rx="1.4932" ry="1.4932"/><path class="cls-3" d="m4,8.0027v3.9986c0,.5515.4471.9986.9986.9986h7.0027c.5515,0,.9986-.4471.9986-.9986v-4.0027c0-.5515-.4471-.9986-.9986-.9986h-6.9986c-.5538,0-1.0027.4489-1.0027,1.0027Z"/><rect x="4" y="6" width="9" height="1"/><rect class="cls-4" x="4" y="4" width="9" height="2" rx="1" ry="1"/><path class="cls-5" d="m6,10l1,1v-4.9973c0-.5538-.4489-1.0027-1.0027-1.0027h0c-.5508,0-.9973.4465-.9973.9973v5.0027l1-1Z"/></g></svg>

<svg xmlns="http://www.w3.org/2000/svg" viewBox="0 0 14 14"><defs><linearGradient id="a" x1="1022.861" x2="1022.861" y1="-893.009" y2="-889.009" gradientTransform="matrix(.5 0 0 -.5 -508.43 -444.505)" gradientUnits="userSpaceOnUse"><stop offset="0"/><stop offset="1" stop-opacity=".151"/></linearGradient></defs><path fill="#40a0ff" d="M1 0C.529 0 0 .529 0 1v7c0 .471.529 1 1 1h10c.471 0 1-.529 1-1V2c0-.471-.529-1-1-1H6c0-.471-.529-1-1-1z"/><path fill="url(#a)" d="M1 0C.529 0 0 .529 0 1s.529 1 1 1h4c.471 0 1-.529 1-1s-.529-1-1-1z" opacity=".723" style="isolation:isolate"/><rect width="11" height="11" x="3" y="3" rx="1.493" ry="1.493"/><path fill="#f29b00" d="M4 8.003V12c0 .552.447.999.999.999H12A1 1 0 0 0 13 12V8a1 1 0 0 0-1-1H5.003C4.449 7 4 7.449 4 8.003"/><path d="M4 6h9v1H4z"/><rect width="9" height="2" x="4" y="4" fill="#efe39a" rx="1" ry="1"/><path fill="red" d="m6 10 1 1V6.003C7 5.449 6.551 5 5.997 5A.997.997 0 0 0 5 5.997V11z"/></svg>
